X: 1188
T: Kalalıyam Kalalı
C: Mahmut Güzelgöz
O: Turkey
F: http://compmusic.upf.edu/node/140
N: segah--turku--sofyan--kalaliyam--urfa
N: makam= segah
N: form= turku
N: usul= sofyan = 4/4
M: 4/4
L: 1/16
K: C _1/4B _1/4e ^f 
Q: 1/4=72
%%MIDI tuningsystem comma53
z4 B2c2 d4 d4  | c2de {=f}d{e}c2B .B4 d4  | \
w:   |   | 
d2{e}dc c3B .B4 d4  | d2{e}dc c3=B e4 e2d2  | 
w:   |   | 
d2e2 dc2B B4 .B.G.B.c  | d4 B2c2 d4 d4  | \
w:   |  *  Ka la lı yam   | 
d2cd c2B2 .d8  | 
w:  ka la *  *  *  lı   | 
c2d2 e2d2 .d8  | c2d2 e2d2 g2fg e3d  | \
w:  yâr  *  *  *  yâr   |  yâr  *  *  *  yâr   | 
d2cd c2B2 B2B2 B2B2  | 
w:  yâr  *  *  kur *  ban    | 
B2G2 B2c2 d4 d4  | c2de {=f}d{e}c2B .B4 d4  | \
w:  SAZ *  Ba şı  ye şil   |  va *  *  *  la *  *  *  lı  em  | 
d2{e}dc c3B .B4 d4  | 
w:  mim_ *  oğ *  *  *  lu  da  | 
d2{e}dc c3=B e4 e2d2  | d2e2 dc2B B4 .B.G.B.c  | \
w:  yım_ *  oğ *  *  *  lu  bi  |  bim_ *  oğ *  *  lu  SAZ  | 
d2c/B/A/G/ B2c2 d4 d4  | 
w:  *  *  *  *  *  Der man sız  der  | 
d2cd c2B2 .d8  | c2d2 e2d2 .d8  | c2d2 e2d2 g2fg e3d  | \
w:  de  düş *  *  *  tüm   |  yâr  *  *  *  yâr   |  yâr  *  *  *  yâr   | 
d2cd c2B2 B2B2 B2B2  | 
w:  yâr  *  *  kur *  ban    | 
B2G2 B2c2 d4 d4  | c2de {=f}d{e}c2B .B4 d4  | \
w:  SAZ *  Sa na  gö nül   |  ve *  *  *  re *  *  *  li  em  | 
d2{e}dc c3B .B4 d4  | 
w:  mim_ *  oğ *  *  *  lu  da  | 
d2{e}dc c3=B e4 e2d2  | d2e2 dc2B B8  | \
w:  yım_ *  oğ *  *  *  lu  bi  |  bim_ *  oğ *  *  lu   | 
z4 B2c2 d4 d4  | c2de {=f}d{e}c2B .B4 d4  | 
w:   |   | 
d2{e}dc c3B .B4 d4  | d2{e}dc c3=B e4 e2d2  | \
w:   |   | 
d2e2 dc2B B4 .B.G.B.c  | 
w:   | 
d4 B2c2 d4 d4  | d2cd c2B2 .d8  | c2d2 e2d2 .d8  | \
w:  *  Ka la lı yam   |  ka la *  *  *  lı   |  yâr  *  *  *  yâr   | 
c2d2 e2d2 g2fg e3d  | 
w:  yâr  *  *  *  yâr   | 
d2cd c2B2 B2B2 B2B2  | B2G2 B2c2 d4 d4  | \
w:  yâr  *  *  kur *  ban    |  SAZ *  Ba şı  ye şil   | 
c2de {=f}d{e}c2B .B4 d4  | 
w:  va *  *  *  la *  *  *  lı  em  | 
d2{e}dc c3B .B4 d4  | d2{e}dc c3=B e4 e2d2  | \
w:  mim_ *  oğ *  *  *  lu  da  |  yım_ *  oğ *  *  *  lu  bi  | 
d2e2 dc2B B4 .B.G.B.c  | 
w:  bim_ *  oğ *  *  lu  SAZ  | 
d2c/B/A/G/ B2c2 d4 d4  | d2cd c2B2 .d8  | \
w:  *  *  *  *  *  Der man sız  der  |  de  düş *  *  *  tüm   | 
c2d2 e2d2 .d8  | c2d2 e2d2 g2fg e3d  | 
w:  yâr  *  *  *  yâr   |  yâr  *  *  *  yâr   | 
d2cd c2B2 B2B2 B2B2  | B2G2 B2c2 d4 d4  | \
w:  yâr  *  *  kur *  ban    |  SAZ *  Sa na  gö nül   | 
c2de {=f}d{e}c2B .B4 d4  | 
w:  ve *  *  *  re *  *  *  li  em  | 
d2{e}dc c3B .B4 d4  | d2{e}dc c3=B e4 e2d2  | \
w:  mim_ *  oğ *  *  *  lu  da  |  yım_ *  oğ *  *  *  lu  bi  | 
d2e2 dc2B B8  | 
w:  bim_ *  oğ *  *  lu   | 
|


